-----BEGIN PGP PUBLIC KEY BLOCK-----

mDMEam4cNRYJKwYBBAHaRw8BAQdAf0KBFId208hlpsrHwRh4rBUyyBVIddHJwnzC
WE4iL8W0KFN0ZXZlIEdpYmJvbnMgPHN0ZXZlX2dpYmJvbnNAaWNsb3VkLmNvbT6I
lgQTFgoAPgIbAwULCQgHAgIiAgYVCgkICwIEFgIDAQIeBwIXgBYhBHMJ8DepRXx2
AcfzvwaDVPvZsEtcBQJqbibMAhkBAAoJEAaDVPvZsEtcJHwA/213gla9uuaMZmkv
14YGNqmt0Xuk7FKs4zUuXfewu1pRAQDlYuUEwoNjjs2iEKH6SmxCmi6a7skBWsDX
2y/J8S3JBbg4BGpuHDUSCisGAQQBl1UBBQEBB0BWpVJgPmKoTbCiaG3IrgfYOl30
+T4guNiFF6IOfFFJfgMBCAeIeAQYFgoAIBYhBHMJ8DepRXx2AcfzvwaDVPvZsEtc
BQJqbhw1AhsMAAoJEAaDVPvZsEtclZsBAPSPpTyLI676e3w0sjj3CCUwIjIxScIq
HD9bvY3RT3JlAP4ituWeaDtPEIpnZ08wm3oH/uCyAfNVcoHLEU57U3eQDbgzBGpu
IlYWCSsGAQQB2kcPAQEHQKMJuuFfbyUGjQpnX81KgwSV8wJZ+KMcyaXXuiV0tyd3
iPUEGBYKACYWIQRzCfA3qUV8dgHH878Gg1T72bBLXAUCam4iVgIbAgUJAsfqAACB
CRAGg1T72bBLXHYgBBkWCgAdFiEEZ4/QeTox0xPphHHvNro/wUC+2gsFAmpuIlYA
CgkQNro/wUC+2gujbQD/R8F/xv/QWka875V6Gf6Brlou3Cn+IFcQovZCSAYWZb0A
/RDWJmCaCmONo+xlIXPMuuy+vLzrne3WT/W2+Ggq7VYAd+4A/3moyles5aiDMoJa
PyRCJjD2fbWRtS22iPmYzm3NGDH7AQD0gwH20d7aRhw7p7DPy6lGnD9SOO29m+L2
cpoC6HEsAA==
=idxf
-----END PGP PUBLIC KEY BLOCK-----
